images/basecamp/basecamp-logo.svg

<svg fill="none" height="33" viewBox="0 0 37 33" width="37" xmlns="http://www.w3.org/2000/svg"><path d="m1.71001 17.73c2.61-7.4 7.61-15.99999 17.69999-15.99999 10.09 0 15.08 13.26999 15.71 22.26999-2.65 4.6-9 6.33-15.71 6.33-2.716.0442-5.4095-.4984-7.8965-1.5909-2.48693-1.0925-4.70872-2.709-6.51349-4.7391 0 0 3.16-8.53 6.10999-8.55 2.17 0 4 4 5.73 4s5.33-7.68 5.33-7.68" stroke="#1d2d35" stroke-linecap="round" stroke-linejoin="round" stroke-width="3.41"/></svg>

<svg width="37" height="33" viewBox="0 0 37 33" fill="none" xmlns="http://www.w3.org/2000/svg">
<path d="M1.71001 17.73C4.32001 10.33 9.32001 1.73001 19.41 1.73001C29.5 1.73001 34.49 15 35.12 24C32.47 28.6 26.12 30.33 19.41 30.33C16.694 30.3742 14.0005 29.8316 11.5135 28.7391C9.02657 27.6466 6.80478 26.0301 5.00001 24C5.00001 24 8.16001 15.47 11.11 15.45C13.28 15.45 15.11 19.45 16.84 19.45C18.57 19.45 22.17 11.77 22.17 11.77" stroke="#1D2D35" stroke-width="3.41" stroke-linecap="round" stroke-linejoin="round"/>
</svg>
